.local/share/icons/Gruvbox-Plus-Dark/apps/scalable/dosbox.svg

<svg xmlns="http://www.w3.org/2000/svg" style="isolation:isolate" width="256" height="256" viewBox="0 0 256 256">
 <defs>
  <filter id="rWK0uiWVnyAD2uDeuXkTSCnDVTDnZtTi" width="400%" height="400%" x="-200%" y="-200%" color-interpolation-filters="sRGB" filterUnits="objectBoundingBox">
   <feGaussianBlur xmlns="http://www.w3.org/2000/svg" in="SourceGraphic" stdDeviation="4.294"/>
   <feOffset xmlns="http://www.w3.org/2000/svg" dx="0" dy="4" result="pf_100_offsetBlur"/>
   <feFlood xmlns="http://www.w3.org/2000/svg" flood-opacity=".4"/>
   <feComposite xmlns="http://www.w3.org/2000/svg" in2="pf_100_offsetBlur" operator="in" result="pf_100_dropShadow"/>
   <feBlend xmlns="http://www.w3.org/2000/svg" in="SourceGraphic" in2="pf_100_dropShadow" mode="normal"/>
  </filter>
 </defs>
 <g filter="url(#rWK0uiWVnyAD2uDeuXkTSCnDVTDnZtTi)">
  <linearGradient id="_lgradient_18" x1="0" x2="0" y1="0" y2="1" gradientTransform="matrix(244.648309,0,0,228.338396,5.68,11.95)" gradientUnits="userSpaceOnUse">
   <stop offset="0%" style="stop-color:#fabd2f"/>
   <stop offset="100%" style="stop-color:#b57614"/>
  </linearGradient>
  <path fill="url(#_lgradient_18)" d="M 165.688919 11.95 C 239.744626 11.95 250.328309 22.507198 250.328309 96.493859 L 250.328309 155.744653 C 250.328309 229.73091 239.744626 240.288396 165.688919 240.288396 L 90.319393 240.288396 C 16.26369 240.288396 5.68 229.73091 5.68 155.744653 L 5.68 96.493859 C 5.68 22.507198 16.26369 11.95 90.319393 11.95 L 165.688919 11.95 Z"/>
 </g>
 <linearGradient id="_lgradient_19" x1="0" x2="0" y1="0" y2="1" gradientTransform="matrix(214.285738,0,0,200,20.857131,27)" gradientUnits="userSpaceOnUse">
  <stop offset="0%" style="stop-color:#504945"/>
  <stop offset="100%" style="stop-color:#3c3836"/>
 </linearGradient>
 <path fill="url(#_lgradient_19)" d="M 161.00782 27 C 225.872695 27 235.142869 36.246976 235.142869 101.051373 L 235.142869 152.948728 C 235.142869 217.752772 225.872695 227 161.00782 227 L 94.992182 227 C 30.12731 227 20.857131 217.752772 20.857131 152.948728 L 20.857131 101.051373 C 20.857131 36.246976 30.12731 27 94.992182 27 L 161.00782 27 Z"/>
 <g opacity=".4">
  <linearGradient id="_lgradient_20" x1=".517" x2=".517" y1="0" y2="1" gradientTransform="matrix(244.65,0,0,228.34,5.68,11.95)" gradientUnits="userSpaceOnUse">
   <stop offset="0%" style="stop-color:#ebdbb2"/>
   <stop offset="12.5%" stop-opacity=".098" style="stop-color:#ebdbb2"/>
   <stop offset="92.5%" stop-opacity=".098" style="stop-color:#282828"/>
   <stop offset="100%" stop-opacity=".498" style="stop-color:#282828"/>
  </linearGradient>
  <path fill="url(#_lgradient_20)" fill-rule="evenodd" d="M 165.06803 11.951234 C 169.395994 11.941409 173.723944 11.990533 178.051908 12.088781 C 181.927398 12.167379 185.802873 12.31475 189.678362 12.540721 C 193.1309 12.737216 196.583423 13.022134 200.026115 13.395476 C 203.085193 13.729518 206.144271 14.181458 209.173842 14.741469 C 211.888645 15.242533 214.57394 15.881143 217.219897 16.6573 C 219.619947 17.354858 221.970814 18.219439 224.242988 19.241215 C 226.357793 20.184394 228.384061 21.304417 230.302129 22.591462 C 232.141505 23.829383 233.862851 25.244151 235.436659 26.80629 C 237.000621 28.378252 238.417046 30.087764 239.656409 31.924995 C 240.944972 33.840824 242.066305 35.864728 243.020409 37.967229 C 244.043389 40.246576 244.908985 42.584873 245.617197 44.972292 C 246.394255 47.615155 247.033606 50.297317 247.535265 53.008956 C 248.095924 56.034984 248.548399 59.080665 248.882828 62.13617 C 249.256611 65.574836 249.541856 69.013506 249.738578 72.462003 C 249.964823 76.323139 250.112361 80.194101 250.200884 84.055237 C 250.289421 88.378131 250.338591 92.701032 250.32876 97.014106 L 250.32876 155.225886 C 250.338591 159.54878 250.289421 163.861854 250.200884 168.184747 C 250.112361 172.05571 249.964823 175.916853 249.738578 179.777981 C 249.541856 183.226485 249.256611 186.674975 248.882828 190.103826 C 248.548399 193.15933 248.095924 196.214835 247.535265 199.240851 C 247.033606 201.942664 246.394255 204.624837 245.617197 207.267703 C 244.908985 209.655115 244.043389 212.003235 243.020409 214.272755 C 242.066305 216.38509 240.944972 218.399156 239.656409 220.314999 C 238.417046 222.152226 237.000621 223.871561 235.436659 225.433697 C 233.862851 226.995832 232.141505 228.410601 230.302129 229.648532 C 228.384061 230.935575 226.357793 232.055598 224.242988 232.998768 C 221.970814 234.020552 219.619947 234.885137 217.219897 235.592507 C 214.57394 236.368672 211.888645 237.007276 209.173842 237.498515 C 206.144271 238.068354 203.085193 238.510465 200.026115 238.844519 C 196.583423 239.21785 193.1309 239.502777 189.678362 239.699269 C 185.802873 239.925235 181.927398 240.072615 178.051908 240.161035 C 173.723944 240.249454 169.395994 240.298581 165.06803 240.288762 L 90.941963 240.288762 C 86.614006 240.298581 82.286049 240.249454 77.9581 240.161035 C 74.08261 240.072615 70.20712 239.925235 66.331638 239.699269 C 62.879108 239.502777 59.426578 239.21785 55.983886 238.844519 C 52.924808 238.510465 49.865733 238.068354 46.836162 237.498515 C 44.121356 237.007276 41.436057 236.368672 38.7901 235.592507 C 36.390053 234.885137 34.039187 234.020552 31.767009 232.998768 C 29.652213 232.055598 27.625943 230.935575 25.707871 229.648532 C 23.868489 228.410601 22.147143 226.995832 20.573343 225.433697 C 19.009377 223.871561 17.592955 222.152226 16.353586 220.314999 C 15.065036 218.399156 13.943701 216.38509 12.989584 214.272755 C 11.966612 212.003235 11.101021 209.655115 10.392811 207.267703 C 9.615746 204.624837 8.976389 201.942664 8.47474 199.240851 C 7.914072 196.214835 7.461604 193.15933 7.127172 190.103826 C 6.753394 186.674975 6.468142 183.226485 6.271417 179.777981 C 6.045183 175.916853 5.897639 172.05571 5.809112 168.184747 C 5.720586 163.861854 5.671405 159.54878 5.681241 155.225886 L 5.681241 97.014106 C 5.671405 92.701032 5.720586 88.378131 5.809112 84.055237 C 5.897639 80.194101 6.045183 76.323139 6.271417 72.462003 C 6.468142 69.013506 6.753394 65.574836 7.127172 62.13617 C 7.461604 59.080665 7.914072 56.034984 8.47474 53.008956 C 8.976389 50.297317 9.615746 47.615155 10.392811 44.972292 C 11.101021 42.584873 11.966612 40.246576 12.989584 37.967229 C 13.943701 35.864728 15.065036 33.840824 16.353586 31.924995 C 17.592955 30.087764 19.009377 28.378252 20.573343 26.80629 C 22.147143 25.244151 23.868489 23.829383 25.707871 22.591462 C 27.625943 21.304417 29.652213 20.184394 31.767009 19.241215 C 34.039187 18.219439 36.390053 17.354858 38.7901 16.6573 C 41.436057 15.881143 44.121356 15.242533 46.836162 14.741469 C 49.865733 14.181458 52.924808 13.729518 55.983886 13.395476 C 59.426578 13.022134 62.879108 12.737216 66.331638 12.540721 C 70.20712 12.31475 74.08261 12.167379 77.9581 12.088781 C 82.286049 11.990533 86.614006 11.941409 90.941963 11.951234 L 165.06803 11.951234 Z M 165.077876 15.959741 C 169.376317 15.949916 173.674759 15.99904 177.973216 16.087463 C 181.799522 16.175886 185.625827 16.323257 189.452133 16.539402 C 192.835809 16.735898 196.219486 17.010992 199.583486 17.384332 C 202.554026 17.698726 205.514751 18.131016 208.445953 18.681203 C 211.023049 19.152792 213.580483 19.761928 216.098564 20.498786 C 218.321569 21.147221 220.495374 21.952852 222.600334 22.896029 C 224.508571 23.750785 226.338116 24.762737 228.069293 25.922059 C 229.692286 27.012609 231.207063 28.260355 232.59398 29.645648 C 233.980897 31.030941 235.230091 32.543956 236.331763 34.165043 C 237.492434 35.894202 238.505568 37.711787 239.361333 39.607968 C 240.305606 41.720292 241.112187 43.891565 241.761369 46.102139 C 242.508934 48.617282 243.108947 51.161898 243.590914 53.735987 C 244.131912 56.663768 244.564709 59.6112 244.889308 62.578282 C 245.263091 65.938355 245.538505 69.308252 245.735227 72.687976 C 245.951626 76.509812 246.10901 80.321821 246.187687 84.143656 C 246.276225 88.437084 246.325394 92.720685 246.325394 97.014106 C 246.325394 97.014106 246.325394 97.014106 246.325394 97.014106 L 246.325394 155.225886 C 246.325394 155.225886 246.325394 155.225886 246.325394 155.225886 C 246.325394 159.519306 246.276225 163.802907 246.187687 168.096328 C 246.10901 171.918164 245.951626 175.739999 245.735227 179.552015 C 245.538505 182.931739 245.263091 186.301629 244.889308 189.671533 C 244.564709 192.628784 244.131912 195.576216 243.590914 198.503994 C 243.108947 201.078094 242.508934 203.622706 241.761369 206.137845 C 241.112187 208.358253 240.305606 210.5197 239.361333 212.63202 C 238.505568 214.528209 237.492434 216.355617 236.331763 218.074952 C 235.230091 219.705853 233.980897 221.218876 232.59398 222.604172 C 231.207063 223.979634 229.692286 225.227385 228.069293 226.317935 C 226.338116 227.477251 224.508571 228.489201 222.600334 229.343951 C 220.495374 230.296956 218.321569 231.092775 216.098564 231.741198 C 213.580483 232.478056 211.023049 233.087202 208.445953 233.558787 C 205.514751 234.108972 202.554026 234.541264 199.583486 234.865483 C 196.219486 235.228995 192.835809 235.513922 189.452133 235.70058 C 185.625827 235.916726 181.799522 236.073926 177.973216 236.152526 C 173.674759 236.25078 169.376317 236.290072 165.077876 236.290072 C 165.077876 236.290072 165.077876 236.290072 165.06803 236.290072 L 90.941963 236.290072 C 90.932125 236.290072 90.932125 236.290072 90.932125 236.290072 C 86.633683 236.290072 82.335234 236.25078 78.036784 236.152526 C 74.210479 236.073926 70.384173 235.916726 66.557868 235.70058 C 63.174195 235.513922 59.790522 235.228995 56.426518 234.865483 C 53.455967 234.541264 50.495253 234.108972 47.564048 233.558787 C 44.986944 233.087202 42.429517 232.478056 39.911433 231.741198 C 37.688439 231.092775 35.514626 230.296956 33.409665 229.343951 C 31.501429 228.489201 29.671886 227.477251 27.940703 226.317935 C 26.31772 225.227385 24.802935 223.979634 23.416022 222.604172 C 22.029109 221.218876 20.779904 219.705853 19.678243 218.074952 C 18.517564 216.355617 17.504428 214.528209 16.648674 212.63202 C 15.704392 210.5197 14.897819 208.358253 14.248626 206.137845 C 13.50107 203.622706 12.901057 201.078094 12.419081 198.503994 C 11.878086 195.576216 11.445291 192.628784 11.120694 189.671533 C 10.746916 186.301629 10.471501 182.931739 10.274776 179.552015 C 10.058378 175.739999 9.900997 171.918164 9.822307 168.096328 C 9.733781 163.802907 9.6846 159.519306 9.6846 155.225886 C 9.6846 155.225886 9.6846 155.225886 9.6846 155.225886 L 9.6846 97.014106 C 9.6846 97.014106 9.6846 97.014106 9.6846 97.014106 C 9.6846 92.720685 9.733781 88.437084 9.822307 84.143656 C 9.900997 80.321821 10.058378 76.509812 10.274776 72.687976 C 10.471501 69.308252 10.746916 65.938355 11.120694 62.578282 C 11.445291 59.6112 11.878086 56.663768 12.419081 53.735987 C 12.901057 51.161898 13.50107 48.617282 14.248626 46.102139 C 14.897819 43.891565 15.704392 41.720292 16.648674 39.607968 C 17.504428 37.711787 18.517564 35.894202 19.678243 34.165043 C 20.779904 32.543956 22.029109 31.030941 23.416022 29.645648 C 24.802935 28.260355 26.31772 27.012609 27.940703 25.922059 C 29.671886 24.762737 31.501429 23.750785 33.409665 22.896029 C 35.514626 21.952852 37.688439 21.147221 39.911433 20.498786 C 42.429517 19.761928 44.986944 19.152792 47.564048 18.681203 C 50.495253 18.131016 53.455967 17.698726 56.426518 17.384332 C 59.790522 17.010992 63.174195 16.735898 66.557868 16.539402 C 70.384173 16.323257 74.210479 16.175886 78.036784 16.087463 C 82.335234 15.99904 86.633683 15.949916 90.932125 15.959741 C 90.932125 15.959741 90.932125 15.959741 90.941963 15.959741 L 165.06803 15.959741 C 165.077876 15.959741 165.077876 15.959741 165.077876 15.959741 Z"/>
 </g>
 <g>
  <defs>
   <filter id="9LFyjNBPB4qu8rtNHUHNWutbGLecJwzd" width="400%" height="400%" x="-200%" y="-200%" color-interpolation-filters="sRGB" filterUnits="objectBoundingBox">
    <feGaussianBlur xmlns="http://www.w3.org/2000/svg" stdDeviation="4.294"/>
   </filter>
  </defs>
  <g opacity=".4" filter="url(#9LFyjNBPB4qu8rtNHUHNWutbGLecJwzd)">
   <path d="M 55.5 64.5625 L 55.5 71.8125 L 62.75 71.8125 L 62.75 115.3125 L 55.5 115.3125 L 55.5 122.5625 L 91.75 122.5625 L 91.75 115.3125 L 99 115.3125 L 99 71.8125 L 91.75 71.8125 L 91.75 64.5625 L 55.5 64.5625 Z M 113.5 64.5625 L 113.5 71.8125 L 106.25 71.8125 L 106.25 115.3125 L 113.5 115.3125 L 113.5 122.5625 L 142.5 122.5625 L 142.5 115.3125 L 149.75 115.3125 L 149.75 71.8125 L 142.5 71.8125 L 142.5 64.5625 L 113.5 64.5625 Z M 164.25 64.5625 L 164.25 71.8125 L 157 71.8125 L 157 86.3125 L 164.25 86.3125 L 164.25 93.5625 L 178.75 93.5625 L 178.75 100.8125 L 186 100.8125 L 186 115.3125 L 171.5 115.3125 L 171.5 100.8125 L 157 100.8125 L 157 115.3125 L 164.25 115.3125 L 164.25 122.5625 L 193.25 122.5625 L 193.25 115.3125 L 200.5 115.3125 L 200.5 100.8125 L 193.25 100.8125 L 193.25 93.5625 L 186 93.5625 L 186 86.3125 L 171.5 86.3125 L 171.5 71.8125 L 186 71.8125 L 186 86.3125 L 200.5 86.3125 L 200.5 71.8125 L 193.25 71.8125 L 193.25 64.5625 L 164.25 64.5625 Z M 77.25 71.8125 L 84.5 71.8125 L 84.5 115.3125 L 77.25 115.3125 L 77.25 71.8125 Z M 120.75 71.8125 L 135.25 71.8125 L 135.25 115.3125 L 120.75 115.3125 L 120.75 71.8125 Z M 55.5 137.0625 L 55.5 144.3125 L 62.75 144.3125 L 62.75 187.8125 L 55.5 187.8125 L 55.5 195.0625 L 91.75 195.0625 L 91.75 187.8125 L 99 187.8125 L 99 166.0625 L 91.75 166.0625 L 91.75 158.8125 L 99 158.8125 L 99 144.3125 L 91.75 144.3125 L 91.75 137.0625 L 55.5 137.0625 Z M 113.5 137.0625 L 113.5 144.3125 L 106.25 144.3125 L 106.25 187.8125 L 113.5 187.8125 L 113.5 195.0625 L 142.5 195.0625 L 142.5 187.8125 L 149.75 187.8125 L 149.75 144.3125 L 142.5 144.3125 L 142.5 137.0625 L 113.5 137.0625 Z M 149.75 137.0625 L 149.75 144.3125 L 157 144.3125 L 157 158.8125 L 164.25 158.8125 L 164.25 173.3125 L 157 173.3125 L 157 187.8125 L 149.75 187.8125 L 149.75 195.0625 L 164.25 195.0625 L 164.25 187.8125 L 171.5 187.8125 L 171.5 180.5625 L 178.75 180.5625 L 178.75 187.8125 L 186 187.8125 L 186 195.0625 L 200.5 195.0625 L 200.5 187.8125 L 193.25 187.8125 L 193.25 173.3125 L 186 173.3125 L 186 158.8125 L 193.25 158.8125 L 193.25 144.3125 L 200.5 144.3125 L 200.5 137.0625 L 186 137.0625 L 186 144.3125 L 178.75 144.3125 L 178.75 151.5625 L 171.5 151.5625 L 171.5 144.3125 L 164.25 144.3125 L 164.25 137.0625 L 149.75 137.0625 Z M 77.25 144.3125 L 84.5 144.3125 L 84.5 158.8125 L 77.25 158.8125 L 77.25 144.3125 Z M 120.75 144.3125 L 135.25 144.3125 L 135.25 187.8125 L 120.75 187.8125 L 120.75 144.3125 Z M 77.25 166.0625 L 84.5 166.0625 L 84.5 187.8125 L 77.25 187.8125 L 77.25 166.0625 Z"/>
  </g>
  <path fill="#ebdbb2" d="M 55.5 60.9375 L 55.5 68.1875 L 62.75 68.1875 L 62.75 111.6875 L 55.5 111.6875 L 55.5 118.9375 L 91.75 118.9375 L 91.75 111.6875 L 99 111.6875 L 99 68.1875 L 91.75 68.1875 L 91.75 60.9375 L 55.5 60.9375 Z M 113.5 60.9375 L 113.5 68.1875 L 106.25 68.1875 L 106.25 111.6875 L 113.5 111.6875 L 113.5 118.9375 L 142.5 118.9375 L 142.5 111.6875 L 149.75 111.6875 L 149.75 68.1875 L 142.5 68.1875 L 142.5 60.9375 L 113.5 60.9375 Z M 164.25 60.9375 L 164.25 68.1875 L 157 68.1875 L 157 82.6875 L 164.25 82.6875 L 164.25 89.9375 L 178.75 89.9375 L 178.75 97.1875 L 186 97.1875 L 186 111.6875 L 171.5 111.6875 L 171.5 97.1875 L 157 97.1875 L 157 111.6875 L 164.25 111.6875 L 164.25 118.9375 L 193.25 118.9375 L 193.25 111.6875 L 200.5 111.6875 L 200.5 97.1875 L 193.25 97.1875 L 193.25 89.9375 L 186 89.9375 L 186 82.6875 L 171.5 82.6875 L 171.5 68.1875 L 186 68.1875 L 186 82.6875 L 200.5 82.6875 L 200.5 68.1875 L 193.25 68.1875 L 193.25 60.9375 L 164.25 60.9375 Z M 77.25 68.1875 L 84.5 68.1875 L 84.5 111.6875 L 77.25 111.6875 L 77.25 68.1875 Z M 120.75 68.1875 L 135.25 68.1875 L 135.25 111.6875 L 120.75 111.6875 L 120.75 68.1875 Z M 55.5 133.4375 L 55.5 140.6875 L 62.75 140.6875 L 62.75 184.1875 L 55.5 184.1875 L 55.5 191.4375 L 91.75 191.4375 L 91.75 184.1875 L 99 184.1875 L 99 162.4375 L 91.75 162.4375 L 91.75 155.1875 L 99 155.1875 L 99 140.6875 L 91.75 140.6875 L 91.75 133.4375 L 55.5 133.4375 Z M 113.5 133.4375 L 113.5 140.6875 L 106.25 140.6875 L 106.25 184.1875 L 113.5 184.1875 L 113.5 191.4375 L 142.5 191.4375 L 142.5 184.1875 L 149.75 184.1875 L 149.75 140.6875 L 142.5 140.6875 L 142.5 133.4375 L 113.5 133.4375 Z M 149.75 133.4375 L 149.75 140.6875 L 157 140.6875 L 157 155.1875 L 164.25 155.1875 L 164.25 169.6875 L 157 169.6875 L 157 184.1875 L 149.75 184.1875 L 149.75 191.4375 L 164.25 191.4375 L 164.25 184.1875 L 171.5 184.1875 L 171.5 176.9375 L 178.75 176.9375 L 178.75 184.1875 L 186 184.1875 L 186 191.4375 L 200.5 191.4375 L 200.5 184.1875 L 193.25 184.1875 L 193.25 169.6875 L 186 169.6875 L 186 155.1875 L 193.25 155.1875 L 193.25 140.6875 L 200.5 140.6875 L 200.5 133.4375 L 186 133.4375 L 186 140.6875 L 178.75 140.6875 L 178.75 147.9375 L 171.5 147.9375 L 171.5 140.6875 L 164.25 140.6875 L 164.25 133.4375 L 149.75 133.4375 Z M 77.25 140.6875 L 84.5 140.6875 L 84.5 155.1875 L 77.25 155.1875 L 77.25 140.6875 Z M 120.75 140.6875 L 135.25 140.6875 L 135.25 184.1875 L 120.75 184.1875 L 120.75 140.6875 Z M 77.25 162.4375 L 84.5 162.4375 L 84.5 184.1875 L 77.25 184.1875 L 77.25 162.4375 Z"/>
 </g>
</svg>

<svg width="256" height="256" version="1.1" xmlns="http://www.w3.org/2000/svg" xmlns:xlink="http://www.w3.org/1999/xlink">
  <defs>
    <linearGradient id="linearGradient31" x1=".5002" x2=".5002" y2="1" gradientTransform="matrix(244,0,0,228,5.986,12)" gradientUnits="userSpaceOnUse">
      <stop stop-color="#ebdbb2" stop-opacity=".2" offset="0"/>
      <stop stop-color="#ebdbb2" stop-opacity=".05" offset=".1"/>
      <stop stop-opacity="0" offset=".7036"/>
      <stop stop-opacity=".1" offset=".8975"/>
      <stop stop-opacity=".2" offset="1"/>
    </linearGradient>
    <linearGradient id="linearGradient6" x1="140" x2="140" y1="12" y2="240" gradientUnits="userSpaceOnUse">
      <stop stop-color="#fe8019" offset="0"/>
      <stop stop-color="#af3a03" offset="1"/>
    </linearGradient>
    <linearGradient id="linearGradient8" x1="140" x2="140" y1="12" y2="240" gradientTransform="matrix(.8438 0 0 .8438 20 19.68)" gradientUnits="userSpaceOnUse">
      <stop stop-color="#3c3836" offset="0"/>
      <stop stop-color="#3c3836" offset="1"/>
    </linearGradient>
  </defs>
  <path d="m165 12c72 0 85 15 85 87v56c0 70-13 85-85 85h-74c-72 0-85-15-85-85v-56c0-72 13-87 85-87z" fill="url(#linearGradient6)" style="isolation:isolate"/>
  <path d="m159.2 29.81c60.75 0 71.72 12.66 71.72 73.41v47.25c0 59.06-10.97 71.72-71.72 71.72h-62.44c-60.75 0-71.72-12.66-71.72-71.72v-47.25c1e-6 -60.75 10.97-73.41 71.72-73.41z" fill="url(#linearGradient8)" stroke-width=".8438" style="isolation:isolate"/>
  <g style="isolation:isolate">
    <path d="m55.5 64.56v7.25h7.25v43.5h-7.25v7.25h36.25v-7.25h7.25v-43.5h-7.25v-7.25zm58 0v7.25h-7.25v43.5h7.25v7.25h29v-7.25h7.25v-43.5h-7.25v-7.25zm50.75 0v7.25h-7.25v14.5h7.25v7.25h14.5v7.25h7.25v14.5h-14.5v-14.5h-14.5v14.5h7.25v7.25h29v-7.25h7.25v-14.5h-7.25v-7.25h-7.25v-7.25h-14.5v-14.5h14.5v14.5h14.5v-14.5h-7.25v-7.25zm-87 7.25h7.25v43.5h-7.25zm43.5 0h14.5v43.5h-14.5zm-65.25 65.25v7.25h7.25v43.5h-7.25v7.25h36.25v-7.25h7.25v-21.75h-7.25v-7.25h7.25v-14.5h-7.25v-7.25zm58 0v7.25h-7.25v43.5h7.25v7.25h29v-7.25h7.25v-43.5h-7.25v-7.25zm36.25 0v7.25h7.25v14.5h7.25v14.5h-7.25v14.5h-7.25v7.25h14.5v-7.25h7.25v-7.25h7.25v7.25h7.25v7.25h14.5v-7.25h-7.25v-14.5h-7.25v-14.5h7.25v-14.5h7.25v-7.25h-14.5v7.25h-7.25v7.25h-7.25v-7.25h-7.25v-7.25zm-72.5 7.25h7.25v14.5h-7.25zm43.5 0h14.5v43.5h-14.5zm-43.5 21.75h7.25v21.75h-7.25z" fill="#282828" style="isolation:isolate"/>
    <path d="m55.5 60.94v7.25h7.25v43.5h-7.25v7.25h36.25v-7.25h7.25v-43.5h-7.25v-7.25zm58 0v7.25h-7.25v43.5h7.25v7.25h29v-7.25h7.25v-43.5h-7.25v-7.25zm50.75 0v7.25h-7.25v14.5h7.25v7.25h14.5v7.25h7.25v14.5h-14.5v-14.5h-14.5v14.5h7.25v7.25h29v-7.25h7.25v-14.5h-7.25v-7.25h-7.25v-7.25h-14.5v-14.5h14.5v14.5h14.5v-14.5h-7.25v-7.25zm-87 7.25h7.25v43.5h-7.25zm43.5 0h14.5v43.5h-14.5zm-65.25 65.25v7.25h7.25v43.5h-7.25v7.25h36.25v-7.25h7.25v-21.75h-7.25v-7.25h7.25v-14.5h-7.25v-7.25zm58 0v7.25h-7.25v43.5h7.25v7.25h29v-7.25h7.25v-43.5h-7.25v-7.25zm36.25 0v7.25h7.25v14.5h7.25v14.5h-7.25v14.5h-7.25v7.25h14.5v-7.25h7.25v-7.25h7.25v7.25h7.25v7.25h14.5v-7.25h-7.25v-14.5h-7.25v-14.5h7.25v-14.5h7.25v-7.25h-14.5v7.25h-7.25v7.25h-7.25v-7.25h-7.25v-7.25zm-72.5 7.25h7.25v14.5h-7.25zm43.5 0h14.5v43.5h-14.5zm-43.5 21.75h7.25v21.75h-7.25z" fill="#ebdbb2"/>
  </g>
  <path d="m91 12c-72 0-85 15-85 87v56c0 70 13 85 85 85h74c72 0 85-15 85-85v-56c0-72-13-87-85-87zm0 4h74c68 0 80 15 80 83v56c0 66-12 81-80 81h-74c-68 0-80-15-80-81v-56c0-68 12-83 80-83z" fill="url(#linearGradient31)" style="isolation:isolate"/>
</svg>
